picto/cycling-prohibited-right.svg

<svg class="color-immutable" width="24" height="24" viewBox="0 0 24 24" fill="none" xmlns="http://www.w3.org/2000/svg"><path d="M0 22.5V1.5C0 0.675 0.675 0 1.5 0H22.5C23.325 0 24 0.675 24 1.5V22.5C24 23.325 23.325 24 22.5 24H1.5C0.675 24 0 23.325 0 22.5Z" fill="#2D327D"/><path d="M10.015 11.795L8.20399 12.428C8.16499 12.443 8.12199 12.449 8.07999 12.449C7.95499 12.449 7.83899 12.387 7.76899 12.283L7.36299 11.68C7.32999 11.63 7.31299 11.571 7.31299 11.513C7.31299 11.347 7.44699 11.212 7.61199 11.212H9.91599C10.082 11.212 10.217 11.347 10.217 11.513C10.217 11.64 10.135 11.754 10.015 11.795Z" fill="white"/><path d="M16.351 11.812H13.725V11.212H16.351C16.516 11.212 16.65 11.346 16.65 11.512C16.65 11.678 16.516 11.812 16.351 11.812Z" fill="white"/><path d="M16.35 12.787H15.975C15.81 12.787 15.675 12.653 15.675 12.487C15.675 12.321 15.81 12.187 15.975 12.187H16.35C16.515 12.187 16.649 12.321 16.649 12.487C16.65 12.653 16.516 12.787 16.35 12.787Z" fill="white"/><path d="M21.05 19.973L20.405 19.328C20.781 18.751 21 18.064 21 17.325C21 15.295 19.354 13.649 17.325 13.649C16.741 13.649 16.165 13.788 15.645 14.056L14.925 12.9H13.977L3.70801 2.631L2.64801 3.692L11.856 12.9H9.07601L8.35601 14.056C7.83701 13.789 7.26001 13.649 6.67501 13.649C4.64601 13.649 3.00001 15.295 3.00001 17.325C3.00001 19.353 4.64601 21 6.67501 21C8.57401 21 10.161 19.553 10.334 17.662H11.116C11.277 18.005 11.621 18.225 12 18.225C12.537 18.225 12.974 17.788 12.974 17.25C12.974 17.031 12.901 16.819 12.765 16.648L13.906 14.952L14.256 15.302C13.865 15.895 13.649 16.596 13.649 17.325C13.649 19.353 15.295 21 17.323 21C18.07 21 18.765 20.776 19.346 20.392L19.988 21.034L21.05 19.973ZM15.963 14.567C16.387 14.358 16.852 14.249 17.325 14.249C19.022 14.249 20.401 15.626 20.401 17.324C20.401 17.897 20.244 18.433 19.97 18.892L16.488 15.41L15.963 14.567ZM6.67501 20.4C4.97801 20.4 3.60101 19.022 3.60101 17.325C3.60101 15.627 4.97801 14.25 6.67501 14.25C7.14801 14.25 7.61401 14.359 8.03801 14.568L6.69501 16.726C6.69001 16.725 6.68201 16.725 6.67601 16.725C6.34501 16.725 6.07701 16.994 6.07701 17.326C6.07701 17.656 6.34501 17.926 6.67601 17.926C6.87501 17.926 7.06001 17.828 7.17201 17.663H9.73301C9.56001 19.22 8.24301 20.4 6.67501 20.4ZM7.19201 17.062L8.54701 14.885C9.23201 15.411 9.66501 16.201 9.73901 17.062H7.19201ZM11.043 17.062H10.341C10.264 15.993 9.72501 15.011 8.86501 14.372L9.26901 13.724L11.234 16.647C11.138 16.768 11.073 16.911 11.043 17.062ZM12.269 16.312C12.182 16.287 12.092 16.275 12.002 16.275C11.91 16.275 11.82 16.287 11.733 16.312L9.84001 13.5H12.455L13.474 14.519L12.269 16.312ZM17.325 20.4C15.628 20.4 14.25 19.022 14.25 17.325C14.25 16.758 14.408 16.211 14.693 15.737L18.914 19.958C18.45 20.238 17.906 20.4 17.325 20.4Z" fill="white"/><path d="M3.70801 2.631L2.64801 3.692L19.99 21.034L21.05 19.973L3.70801 2.631Z" fill="#EB0000"/></svg>

<svg class="color-immutable" width="24" height="24" viewBox="0 0 24 24" fill="none" xmlns="http://www.w3.org/2000/svg"><g clip-path="url(#a)"><path d="M0 22.5v-21C0 .675.675 0 1.5 0h21c.825 0 1.5.675 1.5 1.5v21c0 .825-.675 1.5-1.5 1.5h-21C.675 24 0 23.325 0 22.5Z" fill="#2D327D"/><path d="m10.015 11.795-1.811.633a.374.374 0 0 1-.435-.145l-.406-.603a.3.3 0 0 1 .249-.468h2.304a.3.3 0 0 1 .099.583ZM16.351 11.812h-2.626v-.6h2.626a.3.3 0 0 1 0 .6ZM16.35 12.787h-.375a.3.3 0 0 1 0-.6h.375a.3.3 0 0 1 0 .6Z" fill="#fff"/><path d="m21.05 19.973-.645-.645a3.676 3.676 0 0 0-4.76-5.272l-.72-1.156h-.948L3.708 2.631l-1.06 1.061 9.208 9.208h-2.78l-.72 1.156A3.676 3.676 0 1 0 6.675 21a3.674 3.674 0 0 0 3.659-3.338h.782a.975.975 0 1 0 1.649-1.014l1.141-1.696.35.35a3.676 3.676 0 0 0 5.09 5.09l.642.642 1.062-1.061Zm-5.087-5.406a3.078 3.078 0 0 1 4.438 2.757c0 .573-.157 1.109-.431 1.568l-3.482-3.482-.525-.843ZM6.675 20.4a3.076 3.076 0 1 1 1.363-5.832l-1.343 2.158-.019-.001a.6.6 0 1 0 .496.938h2.561A3.078 3.078 0 0 1 6.675 20.4Zm.517-3.338 1.355-2.177a3.078 3.078 0 0 1 1.192 2.177H7.192Zm3.851 0h-.702a3.68 3.68 0 0 0-1.476-2.69l.404-.648 1.965 2.923a.973.973 0 0 0-.191.415Zm1.226-.75a.967.967 0 0 0-.536 0L9.84 13.5h2.615l1.019 1.019-1.205 1.793Zm5.056 4.088a3.077 3.077 0 0 1-2.632-4.663l4.221 4.221a3.067 3.067 0 0 1-1.589.442Z" fill="#fff"/><path d="m3.708 2.631-1.06 1.061L19.99 21.034l1.06-1.061L3.708 2.631Z" fill="#EB0000"/></g><defs><clipPath id="a"><path fill="#fff" d="M0 0h24v24H0z"/></clipPath></defs></svg>
